src/assets/tokens/SD.svg

<svg width="24" height="24" viewBox="0 0 24 24" fill="none" xmlns="http://www.w3.org/2000/svg">
<path d="M12 24C18.6274 24 24 18.6274 24 12C24 5.37258 18.6274 0 12 0C5.37258 0 0 5.37258 0 12C0 18.6274 5.37258 24 12 24Z" fill="#07C166"/>
<path fill-rule="evenodd" clip-rule="evenodd" d="M16.2667 4.51158C16.5664 4.54631 16.7563 4.85019 16.6561 5.13472L15.1909 9.2982C15.0601 9.66993 14.5575 9.72547 14.3487 9.39128L14.036 8.89084L8.38138 12.4242L7.79982 11.4935C6.87097 10.007 7.32301 8.04903 8.80949 7.12017L11.7726 5.26864L11.4295 4.71956C11.2206 4.38536 11.4909 3.95795 11.8823 4.00333L16.2667 4.51158ZM10.3384 14.1653C8.29546 15.3448 7.59551 17.957 8.77498 19.9999L14.5286 16.6781C16.0465 15.8017 16.5667 13.8606 15.6902 12.3426L15.1415 11.3922L10.3384 14.1653Z" fill="white"/>
</svg>

<svg fill="none" height="24" width="24" xmlns="http://www.w3.org/2000/svg"><path d="M12 24c6.627 0 12-5.373 12-12S18.627 0 12 0 0 5.373 0 12s5.373 12 12 12z" fill="#07c166"/><path clip-rule="evenodd" d="M16.267 4.512c.3.034.49.338.39.623L15.19 9.298a.47.47 0 0 1-.842.093l-.313-.5-5.655 3.533-.581-.93A3.174 3.174 0 0 1 8.81 7.12l2.963-1.851-.343-.55a.47.47 0 0 1 .452-.716zm-5.929 9.653A4.271 4.271 0 0 0 8.775 20l5.754-3.322a3.174 3.174 0 0 0 1.161-4.335l-.548-.95z" fill="#fff" fill-rule="evenodd"/></svg>
